astaworks/images/logo-mini.svg

<?xml version="1.0" encoding="UTF-8"?>
<svg width="21px" height="30px" viewBox="0 0 21 30" version="1.1" xmlns="http://www.w3.org/2000/svg" xmlns:xlink="http://www.w3.org/1999/xlink">
    <!-- Generator: Sketch 47.1 (45422) - http://www.bohemiancoding.com/sketch -->
    <title>logo-mini</title>
    <desc>Created with Sketch.</desc>
    <defs>
        <polygon id="path-1" points="20.9774372 0.11484375 0.103925581 0.11484375 0.103925581 29.9999063 20.9774372 29.9999063 20.9774372 0.11484375"></polygon>
        <polygon id="path-3" points="0 30 21.9767442 30 21.9767442 0.11484375 0 0.11484375"></polygon>
    </defs>
    <g id="Symbols" stroke="none" stroke-width="1" fill="none" fill-rule="evenodd">
        <g id="logo-mini">
            <g>
                <mask id="mask-2" fill="white">
                    <use xlink:href="#path-1"></use>
                </mask>
                <g id="Clip-2"></g>
                <path d="M20.9774372,19.9827188 C20.9774372,25.5149063 16.304693,29.9999063 10.5406814,29.9999063 C4.77666977,29.9999063 0.103925581,25.5149063 0.103925581,19.9827188 C0.103925581,14.4502969 10.5406814,0.11475 10.5406814,0.11475 C10.5406814,0.11475 20.9774372,14.4502969 20.9774372,19.9827188" id="Fill-1" fill="#FFFFFF" mask="url(#mask-2)"></path>
                <g id="Group-4" mask="url(#mask-2)">
                    <mask id="mask-4" fill="white">
                        <use xlink:href="#path-3"></use>
                    </mask>
                    <g id="Clip-5"></g>
                    <path d="M0,19.5105469 L0,16.2292969 L21.9767442,16.2292969 L21.9767442,19.5105469 L0,19.5105469 Z M0,25.6603125 L0,22.7917969 L21.9767442,22.7917969 L21.9767442,25.6603125 L0,25.6603125 Z M10.5813872,6.38552344 C10.8255733,6.15114844 14.162864,12.7916953 14.162864,12.7916953 L11.8023174,12.7916953 L11.8023174,16.2292734 L9.44177093,16.2292734 L9.44177093,12.7916953 L7.16278256,12.7916953 L10.5813872,6.38552344 Z" id="Combined-Shape" fill="#303A88" mask="url(#mask-4)"></path>
                </g>
            </g>
        </g>
    </g>
</svg>

<svg width="21" height="30" viewBox="0 0 21 30" xmlns="http://www.w3.org/2000/svg" xmlns:xlink="http://www.w3.org/1999/xlink"><title>logo-mini</title><defs><path id="a" d="M20.977.115H.104V30h20.873V.115z"/><path id="c" d="M0 30h21.977V.115H0z"/></defs><g fill="none" fill-rule="evenodd"><mask id="b" fill="#fff"><use xlink:href="#a"/></mask><path d="M20.977 19.983C20.977 25.515 16.305 30 10.541 30S.104 25.515.104 19.983C.104 14.45 10.54.115 10.54.115S20.977 14.45 20.977 19.983" fill="#FFF" mask="url(#b)"/><g mask="url(#b)"><mask id="d" fill="#fff"><use xlink:href="#c"/></mask><path d="M0 19.51v-3.28h21.977v3.28H0zm0 6.15v-2.868h21.977v2.868H0zM10.581 6.386c.245-.235 3.582 6.406 3.582 6.406h-2.36v3.437H9.441v-3.437h-2.28l3.42-6.406z" fill="#303A88" mask="url(#d)"/></g></g></svg>
